X:1
T:When You and I Were Young, Maggie
M:4/4
L:1/8
K:F
 A2| c2 AG F2 GF| F4 D F2 D| C2 F2 A2B-A| G4 z2| z A| c2 AG F2 GF|\
 F4 DF FD| C2 FA c2 GA| F4 z2| z F| G2 GA B2 cB| A4 c A2 A| G2 c2 =B2 d2|\
 c4 z2| z c| c2 AG F2G-F| F4 DFF-D| C2F-A c2G-A| F4 z2| z F| G2 GA B2 cB|\
 A4 cA AA| G2 c2 =B2 ed| c4 z2| cd| c2 AG F2 GF| F4 DFF-D| C2F-A c2G-A|\
 F4 z2|

